src/pos-icons/text-subject.svg

<svg height="24" viewBox="0 0 24 24" width="24" xmlns="http://www.w3.org/2000/svg"><path d="m4 5h16v2h-16zm0 4h16v2h-16zm0 4h16v2h-16zm0 4h10v2h-10z"/></svg>

<?xml version="1.0" encoding="UTF-8"?><!DOCTYPE svg PUBLIC "-//W3C//DTD SVG 1.1//EN" "http://www.w3.org/Graphics/SVG/1.1/DTD/svg11.dtd"><svg xmlns="http://www.w3.org/2000/svg" xmlns:xlink="http://www.w3.org/1999/xlink" version="1.1" id="mdi-text-subject" width="24" height="24" viewBox="0 0 24 24"><path d="M4,5H20V7H4V5M4,9H20V11H4V9M4,13H20V15H4V13M4,17H14V19H4V17Z" /></svg>
